symbols/web/carpenter/materialsymbolsoutlined/carpenter_wght200grad200_40px.svg

<svg xmlns="http://www.w3.org/2000/svg" height="40" width="40"><path d="M23.542 35.833q-.584 0-1.167-.229-.583-.229-1.042-.729L19.458 33q-.5-.458-.729-1.062-.229-.605-.187-1.188.041-.625.187-1.062.146-.438.438-.73l.375-.458L5.792 8.875 11.5 3.167l20.75 20.791q.5.459.75 1.063.25.604.25 1.187 0 .584-.25 1.146-.25.563-.75 1.021l-6.458 6.5q-.459.5-1.063.729-.604.229-1.187.229Zm-2.5-8.875 5.625-5.583L11.5 6.167 8.542 9.125Zm1.833 6.375q.333.292.75.292t.708-.292l6.459-6.416q.291-.292.291-.709 0-.416-.291-.75l-2.584-2.583L21 30.083q-.333.292-.333.729 0 .438.333.73Zm-1.833-6.375 5.625-5.583Z"/></svg>

<svg xmlns="http://www.w3.org/2000/svg" height="40" width="40"><path d="M23.542 35.833Q22.958 35.833 22.375 35.604Q21.792 35.375 21.333 34.875L19.458 33Q18.958 32.542 18.729 31.938Q18.5 31.333 18.542 30.75Q18.583 30.125 18.729 29.688Q18.875 29.25 19.167 28.958L19.542 28.5L5.792 8.875L11.5 3.167L32.25 23.958Q32.75 24.417 33 25.021Q33.25 25.625 33.25 26.208Q33.25 26.792 33 27.354Q32.75 27.917 32.25 28.375L25.792 34.875Q25.333 35.375 24.729 35.604Q24.125 35.833 23.542 35.833ZM21.042 26.958 26.667 21.375 11.5 6.167 8.542 9.125ZM22.875 33.333Q23.208 33.625 23.625 33.625Q24.042 33.625 24.333 33.333L30.792 26.917Q31.083 26.625 31.083 26.208Q31.083 25.792 30.792 25.458L28.208 22.875L21 30.083Q20.667 30.375 20.667 30.812Q20.667 31.25 21 31.542ZM21.042 26.958 26.667 21.375Z"/></svg>
